assets/icons/qvision/router.svg

<svg xmlns="http://www.w3.org/2000/svg" height="24" viewBox="0 0 24 24" width="24"><path d="M0 0h24v24H0z" fill="none"/><path d="M20.2 5.9l.8-.8C19.6 3.7 17.8 3 16 3s-3.6.7-5 2.1l.8.8C13 4.8 14.5 4.2 16 4.2s3 .6 4.2 1.7zm-.9.8c-.9-.9-2.1-1.4-3.3-1.4s-2.4.5-3.3 1.4l.8.8c.7-.7 1.6-1 2.5-1 .9 0 1.8.3 2.5 1l.8-.8zM19 13h-2V9h-2v4H5c-1.1 0-2 .9-2 2v4c0 1.1.9 2 2 2h14c1.1 0 2-.9 2-2v-4c0-1.1-.9-2-2-2zM8 18H6v-2h2v2zm3.5 0h-2v-2h2v2zm3.5 0h-2v-2h2v2z"/></svg>

<svg width="24" height="24" viewBox="0 0 24 24" fill="none" xmlns="http://www.w3.org/2000/svg">
<g clip-path="url(#clip0_147_3050)">
<path d="M20.2 5.9L21 5.1C19.6 3.7 17.8 3 16 3C14.2 3 12.4 3.7 11 5.1L11.8 5.9C13 4.8 14.5 4.2 16 4.2C17.5 4.2 19 4.8 20.2 5.9ZM19.3 6.7C18.4 5.8 17.2 5.3 16 5.3C14.8 5.3 13.6 5.8 12.7 6.7L13.5 7.5C14.2 6.8 15.1 6.5 16 6.5C16.9 6.5 17.8 6.8 18.5 7.5L19.3 6.7ZM19 13H17V9H15V13H5C3.9 13 3 13.9 3 15V19C3 20.1 3.9 21 5 21H19C20.1 21 21 20.1 21 19V15C21 13.9 20.1 13 19 13ZM8 18H6V16H8V18ZM11.5 18H9.5V16H11.5V18ZM15 18H13V16H15V18Z" fill="#323232"/>
</g>
<defs>
<clipPath id="clip0_147_3050">
<rect width="24" height="24" fill="white"/>
</clipPath>
</defs>
</svg>
